assets/features/global-acquiring/frame-111.svg

<svg width="40" height="40" viewBox="0 0 40 40" fill="none" xmlns="http://www.w3.org/2000/svg">
<rect x="4" y="19" width="32" height="3" rx="1.5" fill="#285BFF"/>
<path d="M7 29.999C7.00026 31.6557 8.34331 32.999 10 32.999H15.334V34.999H10C7.23874 34.999 5.00026 32.7602 5 29.999V24.665H7V29.999ZM35 29.999C34.9997 32.7602 32.7613 34.999 30 34.999H24.666V32.999H30C31.6567 32.999 32.9997 31.6557 33 29.999V24.665H35V29.999ZM15.334 7H10C8.34315 7 7 8.34315 7 10V15.334H5V10C5 7.23858 7.23858 5 10 5H15.334V7ZM30 5C32.7614 5 35 7.23858 35 10V15.334H33V10C33 8.34315 31.6569 7 30 7H24.666V5H30Z" fill="#3C4A66"/>
</svg>

<svg xmlns="http://www.w3.org/2000/svg" width="40" height="40" fill="none" viewBox="0 0 40 40"><rect width="32" height="3" x="4" y="19" fill="#285bff" rx="1.5"/><path fill="#3c4a66" d="M7 29.999a3 3 0 0 0 3 3h5.334v2H10a5 5 0 0 1-5-5v-5.334h2zm28 0a5 5 0 0 1-5 5h-5.334v-2H30a3 3 0 0 0 3-3v-5.334h2zM15.334 7H10a3 3 0 0 0-3 3v5.334H5V10a5 5 0 0 1 5-5h5.334zM30 5a5 5 0 0 1 5 5v5.334h-2V10a3 3 0 0 0-3-3h-5.334V5z"/></svg>
